assets/assets/icons/digital_reading.svg

<?xml version="1.0" encoding="utf-8"?>
<!-- Uploaded to: SVG Repo, www.svgrepo.com, Generator: SVG Repo Mixer Tools -->
<svg fill="#000000" version="1.1" id="Layer_1" xmlns="http://www.w3.org/2000/svg" xmlns:xlink="http://www.w3.org/1999/xlink" 
	 width="800px" height="800px" viewBox="0 0 210 256" enable-background="new 0 0 210 256" xml:space="preserve">
<path d="M174.55,144.5L174.55,144.5c-1.4-4-5-6.5-9.2-6.5H159V23c0-11.708-9.292-21-21-21H25C12.57,2,2,12.57,2,25v183
	c0,11.9,10.95,22,22.75,22l114.213,0c1.207,0,2.27,0.984,2.18,2.188c-0.095,1.266-1.153,1.812-2.393,1.812h-45.5L128,254h80
	L174.55,144.5z M82.05,220.2c-3.199,0-5.599-2.399-5.6-5.598c-0.001-3.045,2.557-5.602,5.602-5.602
	c3.199,0.001,5.598,2.401,5.598,5.6C87.55,217.8,85.25,220.2,82.05,220.2z M144,138h-19.65c-5.3,0-9.8,4.7-9.8,10l0,0
	c0,5.3,4.5,10,9.8,10h19.8v42H18V31h126V138z M117.683,92.929v21.421c0,4.218-3.432,7.65-7.65,7.65H39.65
	c-4.218,0-7.65-3.432-7.65-7.65V56.208c0-4.218,3.432-7.65,7.65-7.65h42.841l-12.24,12.24H44.24v48.962h61.202v-4.59L117.683,92.929
	z M129.923,66.918l-24.481-24.481v13.77c-19.849,0-36.017,15.748-36.698,35.428c9.743-8.71,22.603-14.008,36.698-14.008v13.77
	L129.923,66.918z"/>
</svg>

<svg xmlns="http://www.w3.org/2000/svg" width="206" height="252" viewBox="0 0 206 252">
  <path id="digital_reading" d="M174.55,144.5h0a9.578,9.578,0,0,0-9.2-6.5H159V23A20.861,20.861,0,0,0,138,2H25A23.358,23.358,0,0,0,2,25V208c0,11.9,10.95,22,22.75,22H138.963a2.129,2.129,0,0,1,2.18,2.188c-.1,1.266-1.153,1.812-2.393,1.812H93.25L128,254h80Zm-92.5,75.7a5.468,5.468,0,0,1-5.6-5.6,5.665,5.665,0,0,1,5.6-5.6,5.468,5.468,0,0,1,5.6,5.6A5.528,5.528,0,0,1,82.05,220.2ZM144,138H124.35a10.124,10.124,0,0,0-9.8,10h0a10.124,10.124,0,0,0,9.8,10h19.8v42H18V31H144ZM117.683,92.929V114.35a7.659,7.659,0,0,1-7.65,7.65H39.65A7.659,7.659,0,0,1,32,114.35V56.208a7.659,7.659,0,0,1,7.65-7.65H82.491L70.251,60.8H44.24V109.76h61.2v-4.59Zm12.24-26.011L105.442,42.437v13.77a36.721,36.721,0,0,0-36.7,35.428,54.881,54.881,0,0,1,36.7-14.008V91.4Z" transform="translate(-2 -2)" fill="#fff"/>
</svg>
